tg16/_inc/system.svg

<svg xmlns="http://www.w3.org/2000/svg"><g fill="#fff"><path d="m0 0h29.718v8.745h-8.697v118.704h-10.512v-118.704h-10.509z"/><path d="m56.64 118.761h11.601v-83.166h10.146v83.166c0 5.385-4.89 9.195-9.906 9.195h-11.841c-5.298 0-10.026-4.311-10.026-9.303v-83.058h10.026z"/><path d="m274.824 55.908h15.495v72.132h-21.837c-4.668 0-10.419-3.576-10.419-8.997v-109.035c0-4.581 4.8-9.459 10.191-9.459h11.916c5.286 0 10.08 4.836 10.08 9.354v25.83h-10.443v-25.47h-11.868v108.861h12.141v-54.387h-5.256z"/><path d="m424.662 83.772v43.719h-9.783v-83.733c0-3.783 3.762-7.905 8.517-7.905h16.128v8.07h-14.862v30.939h12.237v8.949z"/><path d="m459.366 35.877h10.269v33.351l5.799 5.829 5.676-5.667v-33.513h10.146v31.731c0 3.873-10.023 14.082-10.023 14.082s10.146 10.203 10.146 14.337v31.65h-9.546v-32.952l-6.159-6.231-6.162 6.15v33.033h-10.146v-31.575c0-3.882 10.746-14.493 10.746-14.493s-10.746-10.092-10.746-14.16z"/><path d="m122.361 83.979c3.441 0 8.019-4.116 8.019-9.624v-30.096c0-4.329-4.938-8.361-10.557-8.361h-20.838v91.962h9.606v-43.206h3.624l10.689 43.044h9.423zm-1.902-8.994h-11.508v-30.177h11.508z"/><path d="m334.917 83.739c3.444 0 8.025-4.122 8.025-9.627v-30.096c0-4.329-4.944-8.367-10.557-8.367h-20.838v91.971h9.597v-43.212h3.627l10.695 43.041h9.42zm-2.04-9.096h-11.499v-30.177h11.499z"/><path d="m181.728 86.145c-.042-4.122-4.344-6.726-4.344-6.726s4.344-2.814 4.344-6.726v-28.074c0-5.298-4.665-8.745-9.42-8.745h-21.927v91.803h21.927c4.44 0 9.42-2.772 9.42-8.742 0 0 .051-28.674 0-32.79zm-9.873 32.538h-11.505v-34.218h11.505zm0-43.719h-11.505v-30.177h11.505z"/><path d="m223.725 35.196h-5.799-5.619c-5.754 0-9.942 4.917-9.942 8.658v74.559c0 4.818 5.367 9.189 9.897 9.189h12.414c4.848 0 9.693-5.004 9.693-8.997v-75.003c0-3.36-4.575-8.406-10.644-8.406zm.36 82.929h-11.115v-73.848h11.115z"/><path d="m384.909 35.853h-12.678c-5.712 0-9.063 4.707-9.063 8.406v83.232h9.603v-43.719h12.138v43.719h9.606v-82.728c-.003-5.49-3.801-8.91-9.606-8.91zm-.276 38.841h-11.499v-29.592h11.499z"/><path d="m549.174 84.606h29.733v11.091h-29.733z"/><path d="m552.843 34.578c-26.043 0-47.148 21.111-47.148 47.154s21.105 47.157 47.148 47.157c26.04 0 47.157-21.114 47.157-47.157s-21.114-47.154-47.157-47.154zm-16.047 66.528h-14.952v-5.238h4.821v-27.672h-4.731v-5.409h10.137v32.994h4.725zm47.265-28.269h-4.806v-4.812h-30.342v11.514h32.403l2.745 2.754v15.213l-3.435 3.435h-33.171l-3.438-3.435v-31.368l3.186-3.183h33.942l2.916 2.922z"/></g></svg>

<?xml version="1.0" encoding="utf-8"?>
<svg version="1.1" xmlns="http://www.w3.org/2000/svg">
  <g>
    <polygon points="0 0 29.718 0 29.718 8.745 21.021 8.745 21.021 127.449 10.509 127.449 10.509 8.745 0 8.745" id="polygon5" style="fill:#ffffff;fill-opacity:1"/>
    <path d="M 56.64 118.761 L 68.241 118.761 L 68.241 35.595 L 78.387 35.595 L 78.387 118.761 C 78.387 124.146 73.497 127.956 68.481 127.956 L 56.64 127.956 C 51.342 127.956 46.614 123.645 46.614 118.653 L 46.614 35.595 L 56.64 35.595 L 56.64 118.761 Z" id="path7" style="fill:#ffffff;fill-opacity:1"/>
    <path d="M 274.824 55.908 L 290.319 55.908 L 290.319 128.04 L 268.482 128.04 C 263.814 128.04 258.063 124.464 258.063 119.043 L 258.063 10.008 C 258.063 5.427 262.863 0.549 268.254 0.549 L 280.17 0.549 C 285.456 0.549 290.25 5.385 290.25 9.903 L 290.25 35.733 L 279.807 35.733 L 279.807 10.263 L 267.939 10.263 L 267.939 119.124 L 280.08 119.124 L 280.08 64.737 L 274.824 64.737 L 274.824 55.908 Z" id="path9" style="fill:#ffffff;fill-opacity:1"/>
    <path d="M 424.662 83.772 L 424.662 127.491 L 414.879 127.491 L 414.879 43.758 C 414.879 39.975 418.641 35.853 423.396 35.853 L 439.524 35.853 L 439.524 43.923 L 424.662 43.923 L 424.662 74.862 L 436.899 74.862 L 436.899 83.811 L 424.662 83.772 Z" id="path11" style="fill:#ffffff;fill-opacity:1"/>
    <path d="M 459.366 35.877 L 469.635 35.877 L 469.635 69.228 L 475.434 75.057 L 481.11 69.39 L 481.11 35.877 L 491.256 35.877 L 491.256 67.608 C 491.256 71.481 481.233 81.69 481.233 81.69 C 481.233 81.69 491.379 91.893 491.379 96.027 L 491.379 127.677 L 481.833 127.677 L 481.833 94.725 L 475.674 88.494 L 469.512 94.644 L 469.512 127.677 L 459.366 127.677 L 459.366 96.102 C 459.366 92.22 470.112 81.609 470.112 81.609 C 470.112 81.609 459.366 71.517 459.366 67.449 L 459.366 35.877 Z" id="path13" style="fill:#ffffff;fill-opacity:1"/>
    <path d="M 122.361 83.979 C 125.802 83.979 130.38 79.863 130.38 74.355 L 130.38 44.259 C 130.38 39.93 125.442 35.898 119.823 35.898 L 98.985 35.898 L 98.985 127.86 L 108.591 127.86 L 108.591 84.654 L 112.215 84.654 L 122.904 127.698 L 132.327 127.698 L 122.361 83.979 Z M 120.459 74.985 L 108.951 74.985 L 108.951 44.808 L 120.459 44.808 L 120.459 74.985 Z" id="path15" style="fill:#ffffff;fill-opacity:1"/>
    <path d="M 334.917 83.739 C 338.361 83.739 342.942 79.617 342.942 74.112 L 342.942 44.016 C 342.942 39.687 337.998 35.649 332.385 35.649 L 311.547 35.649 L 311.547 127.62 L 321.144 127.62 L 321.144 84.408 L 324.771 84.408 L 335.466 127.449 L 344.886 127.449 L 334.917 83.739 Z M 332.877 74.643 L 321.378 74.643 L 321.378 44.466 L 332.877 44.466 L 332.877 74.643 Z" id="path17" style="fill:#ffffff;fill-opacity:1"/>
    <path d="M 181.728 86.145 C 181.686 82.023 177.384 79.419 177.384 79.419 C 177.384 79.419 181.728 76.605 181.728 72.693 L 181.728 44.619 C 181.728 39.321 177.063 35.874 172.308 35.874 L 150.381 35.874 L 150.381 127.677 L 172.308 127.677 C 176.748 127.677 181.728 124.905 181.728 118.935 C 181.728 118.935 181.779 90.261 181.728 86.145 Z M 171.855 118.683 L 160.35 118.683 L 160.35 84.465 L 171.855 84.465 L 171.855 118.683 Z M 171.855 74.964 L 160.35 74.964 L 160.35 44.787 L 171.855 44.787 L 171.855 74.964 Z" id="path19" style="fill:#ffffff;fill-opacity:1"/>
    <path d="M 223.725 35.196 L 217.926 35.196 L 212.307 35.196 C 206.553 35.196 202.365 40.113 202.365 43.854 L 202.365 118.413 C 202.365 123.231 207.732 127.602 212.262 127.602 L 224.676 127.602 C 229.524 127.602 234.369 122.598 234.369 118.605 L 234.369 43.602 C 234.369 40.242 229.794 35.196 223.725 35.196 Z M 224.085 118.125 L 212.97 118.125 L 212.97 44.277 L 224.085 44.277 L 224.085 118.125 Z" id="path21" style="fill:#ffffff;fill-opacity:1"/>
    <path d="M 384.909 35.853 L 372.231 35.853 C 366.519 35.853 363.168 40.56 363.168 44.259 L 363.168 127.491 L 372.771 127.491 L 372.771 83.772 L 384.909 83.772 L 384.909 127.491 L 394.515 127.491 L 394.515 44.763 C 394.512 39.273 390.714 35.853 384.909 35.853 Z M 384.633 74.694 L 373.134 74.694 L 373.134 45.102 L 384.633 45.102 L 384.633 74.694 Z" id="path23" style="fill:#ffffff;fill-opacity:1"/>
    <rect x="549.174" y="84.606" width="29.733" height="11.091" id="rect29" style="fill:#ffffff;fill-opacity:1"/>
    <path d="M 552.843 34.578 C 526.8 34.578 505.695 55.689 505.695 81.732 C 505.695 107.775 526.8 128.889 552.843 128.889 C 578.883 128.889 600 107.775 600 81.732 C 600 55.689 578.886 34.578 552.843 34.578 Z M 536.796 101.106 L 521.844 101.106 L 521.844 95.868 L 526.665 95.868 L 526.665 68.196 L 521.934 68.196 L 521.934 62.787 L 532.071 62.787 L 532.071 95.781 L 536.796 95.781 L 536.796 101.106 L 536.796 101.106 Z M 584.061 72.837 L 579.255 72.837 L 579.255 68.025 L 548.913 68.025 L 548.913 79.539 L 581.316 79.539 L 584.061 82.293 L 584.061 97.506 L 580.626 100.941 L 547.455 100.941 L 544.017 97.506 L 544.017 66.138 L 547.203 62.955 L 581.145 62.955 L 584.061 65.877 L 584.061 72.837 Z" id="path31" style="fill:#ffffff;fill-opacity:1"/>
  </g>
</svg>
